X: 073
T: Stag Chace
B: 204 Favourite Country Dances
N: Published by Straight & Skillern, London ca.1775
F: http://imslp.org/wiki/204_Favourite_Country_Dances_(Various) p.37 #73
Z: 2014 John Chambers <jc:trillian.mit.edu>
N: The A flat in bar 15 should probably be G sharp.
M: 2/4
L: 1/16
K: D
% - - - - - - - - - - - - - - - - - - - - - - - - -
|:\
A4 G4 | F2A2c2f2 | e2c2A2c2 | d4 D4 |\
A4 G4 | F2A2d2f2 | e2dc d2cB | A4 A,4 :|\
|:\
e4 d4 | c2e2c2A2 | f4 e4 | ^d2f2d2B2 |
^g4 f4 | e2fg f2e2 | d2c2B2_A2 | B4- B4 |\
A4 G4 | F2f2 Tf4 | e2c2A2c2 | d2D2F2D2 |\
A4 G4 | F2a2 a4 | f2ed e2dc | d4 d4 :|
% - - - - - - - - - - - - - - - - - - - - - - - - -
%%begintext align
%% Cast off 2 Cu. up again cross over 1 Cu. Right & Left at top
%%endtext

%%sep 1 1 500
%%sep 1 1 500
